!!!COM: L van Beethoven
!!!OTL: String Quartet
**kern	**dynam	**kern	**dynam	**kern	**dynam	**kern	**dynam	**mxhm
*part4	*part4	*part3	*part3	*part2	*part2	*part1	*part1	*part1
*staff4	*	*staff3	*	*staff2	*	*staff1	*	*
*I"Violoncello	*	*I"Viola	*	*I"Violin II	*	*I"Violin I	*	*
*I'Vc.	*	*I'Vla.	*	*I'Vln. II	*	*I'Vln. I	*	*
*clefF4	*	*clefC3	*	*clefG2	*	*clefG2	*	*
*k[b-e-a-d-g-c-]	*	*k[b-e-a-d-g-c-]	*	*k[b-e-a-d-g-c-]	*	*k[b-e-a-d-g-c-]	*	*
*G-:	*	*G-:	*	*G-:	*	*G-:	*	*
*M3/8	*	*M3/8	*	*M3/8	*	*M3/8	*	*
=1	=1	=1	=1	=1	=1	=1	=1	=1
!	!	!	!	!	!	!LO:TX:a:B:t=Adagio ma non troppo	!	!
*MM60	*	*MM60	*	*MM60	*	*MM60	*	*
!	!	!	!	!	!	!LO:TX:a:t=[quarter]=60	!	!
8r	.	8r	.	8r	.	4.r	.	.Ab.I[I64
!LO:TX:b:i:t=mezza voce	!	!	!	!	!	!	!	!
!LO:TX:a:i:t=mezza voce	!	!	!	!LO:TX:b:i:t=mezza voce	!	!	!	!
(8GG-'L	.	(8D-'L 8G-	.	(8B-'L	.	.	.	.
8GG-'J)	.	8D-'J) 8G-	.	8B-'J)	.	.	.	.
=2	=2	=2	=2	=2	=2	=2	=2	=2
!	!	!	!	!	!	!LO:TX:a:i:t=cantabile	!	!
[4.GG-	.	(8.D-L	.	(8B-L	.	(4bb-	.	.
.	.	.	.	8g-)	.	.	.	.
.	.	16DL	.	.	.	.	.	.
.	.	16E-	.	8g-J	.	16ccc-LL	.	.
.	.	16D-XJJ)	.	.	.	16bb-JJ)	.	.
=3	=3	=3	=3	=3	=3	=3	=3	=3
4.GG-]	.	(8CL	.	(8e-L	.	(8bb-L	.	V(2)/V
.	.	8C-X	.	8F 8e--X	.	8aa-	.	viio7
.	.	8BB-J)	.	8G-J) 8d-	.	8bb-J	.	I]
=4	=4	=4	=4	=4	=4	=4	=4	=4
(16EE-LL	.	(16G-LL	.	(16c-LL	.	8ccc-L	.	V65
16FFJJ	.	16D-JJ	.	16A-JJ	.	.	.	.
8GG-L	.	8D-L	.	8B-L	.	8.bb-	.	I6
8BB-J)	.	8d-J)	.	8G-J)	.	.	.	.
.	.	.	.	.	.	16ddd-Jk)	.	.
=5	=5	=5	=5	=5	=5	=5	=5	=5
8D-	.	(8d-	.	8F	.	4aa-	.	V
8r	.	4F)	.	8r	.	.	.	.
8D-	.	.	.	8d-	.	(8aa-	.	.
=6	=6	=6	=6	=6	=6	=6	=6	=6
4.GG-	.	(8G-L	.	(8d-L	.	8bb-L	.	I
.	.	8D-	.	8B-	.	8gg-	.	.
.	.	8d-J	.	8g-J)	.	8bb-J	.	.
=7	=7	=7	=7	=7	=7	=7	=7	=7
(4FF	<	8dL	<	(4a-	<	8ccc-L	<	#viio65/vi
.	.	8D	.	.	.	8aa-	.	.
8EE-	[[	8E-J	[[	8g-	[[	8ccc-J	[[	IV6
=8	=8	=8	=8	=8	=8	=8	=8	=8
8DDL	>	8FL	>	8fL	>	8.bb-L)	>	vi
16EE-L	.	16G-L	.	16B-L	.	.	.	.
16GG-	.	16B-	.	16e-	.	16gg-L	.	vi6
16AA-	.	16A-	.	16d-	.	16ff	.	V(64)/V
16AA-JJ)	]]	16G-JJ)	]]	16cJJ)	]]	16ee-JJ	]]	V7/V
=9	=9	=9	=9	=9	=9	=9	=9	=9
(8DD-XL	.	(8G-L	.	(8cL	.	(8ee-L	.	V(9#74)
16D-Jk)	.	16FJk)	.	16A-Jk)	.	8dd-J)	.	V\\
16r	.	16r	.	16r	.	.	.	.
8r	.	8r	.	(16fLL	.	(16a-LL	.	.
.	.	.	.	16e-JJ	.	16g-JJ	.	.
=10	=10	=10	=10	=10	=10	=10	=10	=10
4.r	.	(8c-L	.	8d-L	.	8fL	.	V2
.	.	8B-	.	8e-	.	8g-	.	I6
.	.	8A-J)	.	8fJ	.	8a-J	.	V64
=11	=11	=11	=11	=11	=11	=11	=11	=11
8r	.	[4.G-	.	4g-)	.	4b-)	.	I
8r	.	.	.	.	.	.	.	.
(16D-LL	.	.	.	(16b-LL	.	(16dd-LL	.	I64
16E-JJ	.	.	.	16a-JJ	.	16cc-JJ	.	ii43
=12	=12	=12	=12	=12	=12	=12	=12	=12
8F-XL	.	(8G-L]	.	8g-L	.	8b-L	.	V2/IV
8E-	.	8g-	.	8a-	.	8cc-	.	IV6
8D-J	.	8G-J 8f-X	.	8b-J	.	8dd-J	.	V43/IV
=13	=13	=13	=13	=13	=13	=13	=13	=13
4C-)	<	4G-) 4e-	<	4cc-X)	<	4ee-)	<	IV
(16BB-LL	[ sf	(16G-LL	[ sf	(16dd-LL	[ sf	(16ff-XLL	[ sf	V65/IV
16C-JJ)	.	16e-JJ)	.	16cc-JJ)	.	16ee-JJ)	.	IV
=14	=14	=14	=14	=14	=14	=14	=14	=14
4GG	.	4e-	.	(8cc-L	.	(8ee-L	.	V6(6)/ii
.	.	.	.	8b-J)	.	8dd-J)	.	V65/ii
(16EE-LL	sf	(16E-LL	sf	(16cc-LL	sf	(16ee-LL	sf	V(6)/ii
16GGJJ)	.	16e-JJ)	.	16b-JJ)	.	16dd-JJ)	.	V65/ii
=15	=15	=15	=15	=15	=15	=15	=15	=15
8.AA-L	.	8.e-L	.	(8b-L	.	(8dd-L	.	ii(94)
.	.	.	.	16a-L	.	16cc-L	.	ii
16AA-L	.	16c-L	.	16e-)	.	16ee-)	.	.
(16AA-	.	(16c-	.	(16e-	.	(16ee-	.	.
16BB-JJ	.	16B-JJ)	.	16gJJ)	.	16dd-JJ)	.	#viio6/ii
=16	=16	=16	=16	=16	=16	=16	=16	=16
8C-L)	.	8A-L	.	8a-L	.	(16dd-LL	.	ii6
.	.	.	.	.	.	16cc-	.	.
!LO:TX:b:i:t=cresc.	!	!LO:TX:b:i:t=cresc.	!	!LO:TX:b:i:t=cresc.	!	!	!	!
8.CC-	.	(8.c-	.	(8.A- 8.e-	.	16b-	.	.
.	.	.	.	.	.	16a-JJ	.	.
.	.	.	.	.	.	16ffLL	.	.
16CC-Jk	.	16d-Jk)	.	16A-Jk) 16f	.	32ee-L	.	V2
.	.	.	.	.	.	32fJJJ	.	.
=17	=17	=17	=17	=17	=17	=17	=17	=17
16BBB-LL	.	(16d-LL	.	(16G-XLL 16g-X	.	16g-LL	.	I6
16EE-J	.	16G-JJ)	.	16c-JJ)	.	32dd-L	.	IV6
.	.	.	.	.	.	32cc-JJJ)	.	.
!	!	!	!	!	!LO:DY:a	!	!	!
8DD-	f >	(8G-L	f >	(8d-L	f f >	(8b-L	>	V(64)
8DD-J	]]	8d-J)	]]	8fJ)	]]	8a-J)	]]	V
=18	=18	=18	=18	=18	=18	=18	=18	=18
8GG-	p	(8B-L	p	8d-	p	(8g-L	p	I[I6
[4GG-	.	8G-	.	[4c-	.	8.e-	.	ii
.	.	[8A-J)	.	.	.	.	.	.
.	.	.	.	.	.	16a-Jk)	.	.
=19	=19	=19	=19	=19	=19	=19	=19	=19
8GG-L]	.	(8A-L]	.	(8c-L]	.	(8g-L	.	ii7
8GG-	.	8D-	.	8F	.	8f	.	V
8GG-J	.	16E-L	.	16G-L	.	16e-L	.	vi
.	.	16FJJ)	.	16A-JJ)	.	16d-JJ)	.	V6
=20	=20	=20	=20	=20	=20	=20	=20	=20
8GG-	.	(16G-LL	.	(16B-LL	.	(16d-LL	.	I
.	.	16BB-JJ	.	[16G-JJ)	.	16g-JJ)	.	.
[4GG-	.	[4C-)	.	(16G-LL]	.	(8.e-L	.	ii6
.	.	.	.	16GJ)	.	.	.	.
.	.	.	.	[8A-J	.	.	.	.
.	.	.	.	.	.	32b-LL	.	.
.	.	.	.	.	.	32a-JJJ)	.	.
=21	=21	=21	=21	=21	=21	=21	=21	=21
8GG-L]	.	(8C-L]	.	8.A-L]	.	(8g-L	.	ii65
8GG-	.	8D-	.	.	.	8f	.	V
.	.	.	.	(16FL	.	.	.	.
8GG-J	.	16E-L	.	16G-X	.	16e-L	.	IV6
.	.	16FJJ)	.	16A-JJ)	.	16d-JJ)	.	V6
=22	=22	=22	=22	=22	=22	=22	=22	=22
!LO:TX:b:i:t=cresc.	!	!LO:TX:b:i:t=cresc.	!	!LO:TX:b:i:t=cresc.	!	!LO:TX:b:i:t=cresc.	!	!
(8GG-L	.	(4G-	.	(8B-L	.	(8d-L	.	I]
8CC-	.	.	.	8A-)	.	8e-	.	ii6
8DD-J)	.	32FLLL	.	8A-J	.	8fJ)	.	V
.	.	32E-	.	.	.	.	.	.
.	.	32D-	.	.	.	.	.	.
.	.	32C-JJJ)	.	.	.	.	.	.
=23	=23	=23	=23	=23	=23	=23	=23	=23
.	.	.	.	.	.	8qf/	sf >	.
!	!	!	!LO:DY:a	!	!	!	!	!
4.DD-	sf > ]]	4.C-	sf sf > ]]	4A-	.	4.a-	]]	V7
.	.	.	.	(32FLLL	>	.	.	.
.	.	.	.	32A-	.	.	.	.
.	.	.	.	32d-	.	.	.	.
.	.	.	.	32FJJJ)	]]	.	.	.
=24	=24	=24	=24	=24	=24	=24	=24	=24
8GG-	p	8BB-	p	8G-	p	4g-	p	I\\
[4G-	.	8r	.	8r	.	.	.	.
.	.	[8B--X	.	(8B--X	.	8r	.	i.i
=25	=25	=25	=25	=25	=25	=25	=25	=25
8G-]	.	8B--]	.	8e-)	.	(8dd-L	.	iv%43
[4G-	.	[4B--X	.	[4d-	.	8b--X)	.	i
.	.	.	.	.	.	(16dd-'L	.	.
.	.	.	.	.	.	16b--'JJ)	.	.
=26	=26	=26	=26	=26	=26	=26	=26	=26
8G-]	.	8B--]	.	8d-]	.	(8a-L	.	i(9)
[4G-	.	[4B--X	.	[4d-	.	8g-J)	.	i\\
.	.	.	.	.	.	(16g-'LL	.	.
.	.	.	.	.	.	16b--X'JJ)	.	.
=27	=27	=27	=27	=27	=27	=27	=27	=27
8G-]	.	8B--]	.	8d-]	.	8dd-L	.	.
[4G-	.	[4B--X	.	[4d-	.	8gg-J	.	.
.	.	.	.	.	.	(16bb--X'LL	.	.
.	.	.	.	.	.	16gg-'JJ)	.	.
=28	=28	=28	=28	=28	=28	=28	=28	=28
.	.	.	.	.	.	32qqff/LLL	.	.
.	.	.	.	.	.	32qqgg-/	.	.
.	.	.	.	.	.	32qqaa-/JJJ	.	.
(8G-L]	.	(8B--L]	.	(8d-L]	.	(8gg-L	.	.
8D-)	.	8A-)	.	8f)	.	8ffJ)	.	V
8D-J	.	8A-J	.	[8f-XJ	.	[8aa-	.	.bIII.iii
=29	=29	=29	=29	=29	=29	=29	=29	=29
!LO:TX:b:i:t=cresc.	!	!LO:TX:b:i:t=cresc.	!	!LO:TX:b:i:t=cresc.	!	!LO:TX:b:i:t=cresc.	!	!
8E--X	.	8c-X	.	8f-]	.	4aa-]	.	V2
4E--	.	4F-X	.	4c-	.	.	.	.
.	.	.	.	.	.	8ff-X	.	.
=30	=30	=30	=30	=30	=30	=30	=30	=30
8D-L	.	8F-X	.	8B--X	.	8bb--XL	.	I6
!	!	!	!LO:DY:a	!	!	!	!	!
(16DD-L	f	(16F-LL	f f	(16B--LL	.	(16b--XL	f	.
16DD-)	.	16F-JJ)	.	16B--JJ)	.	16b--JJ)	.	.
(16DD-	.	(16F-LL	.	(16B--LL	.	(16a--LL	.	V65/iv
16DD-JJ)	.	16F-JJ)	.	16B--JJ)	.	16a--JJ)	.	.
=31	=31	=31	=31	=31	=31	=31	=31	=31
4EE--X	.	4E--X	.	4B--X	.	4g--	.	iv
[8FF-X	.	[8C	.	[8B--	.	[8f-X	.	V(b64)
=32	=32	=32	=32	=32	=32	=32	=32	=32
8FF-]	.	8C]	.	8B--]	.	8f-]	.	.
!	!LO:DY:a	!	!LO:DY:a	!	!	!	!	!
[4FF	sf sf	[4C	sf	[4B--X	.	[4e-	sf	.Ger6
=33	=33	=33	=33	=33	=33	=33	=33	=33
8FF]	.	8C]	.	8B--]	.	8e-]	.	.
!LO:TX:b:i:t=dim.	!	!LO:TX:b:i:t=dim.	!	!LO:TX:b:i:t=dim.	!	!LO:TX:b:i:t=dim.	!	!
[4GG-	.	[4C	.	[4B--X	.	[4e-	.	#viio65/V
=34	=34	=34	=34	=34	=34	=34	=34	=34
8GG-L]	p	(8CL]	p	8B--L]	p	(8e-L]	p	.
8FF-X	.	8D-	.	(8B--X	.	8f-X	.	V(64)
8FF-J	.	8E--XJ)	.	8A-J)	.	16g-XL	.	V7
.	.	.	.	.	.	16f-JJ)	.	.
=35	=35	=35	=35	=35	=35	=35	=35	=35
8BB--X	.	8D-	.	8B--X	.	4B--X	.	I\\
8r	.	4d-	.	8r	.	.	.	.
8r	.	.	.	8f-X	.	(8b--X	.	.
=36	=36	=36	=36	=36	=36	=36	=36	=36
8r	.	4e--X	.	4f	.	[8a-XL)	.	I[viio7
8B--XL	.	.	.	.	.	(16a-L]	.	.
.	.	.	.	.	.	16ee--X)	.	.
8B--J	.	8e--	.	8f-X	.	16cc-'	.	.
.	.	.	.	.	.	16a-'JJ	.	.
=37	=37	=37	=37	=37	=37	=37	=37	=37
4B--X	.	8d-	.	8f-X	.	(8cc-XL	.	I(9)
.	.	(16D-LL	.	8r	.	8b--XJ)	.	I
.	.	[16F-XJJ)	.	.	.	.	.	.
8r	.	8F-]	.	(16B--XLL	.	(8B--X	.	.
.	.	.	.	16d-JJ)	.	.	.	.
=38	=38	=38	=38	=38	=38	=38	=38	=38
8r	.	8F	.	4.e--X	.	[8A-L)	.	viio7
8BB--XL	.	[4F-X	.	.	.	(16A-L]	.	.
.	.	.	.	.	.	16e--X)	.	.
8BB--J	.	.	.	.	.	(16c-X'	.	.
.	.	.	.	.	.	16A-'JJ)	.	.
=39	=39	=39	=39	=39	=39	=39	=39	=39
4.BB--X	.	8F-]	.	8d-	.	8B--XL	.	I]
.	.	[4F-X	.	8r	.	8.b--X	.	.
.	.	.	.	[8d-	.	.	.	.
.	.	.	.	.	.	16a--Jk	.	V/IV
=40	=40	=40	=40	=40	=40	=40	=40	=40
4.BB-	.	8F-]	.	4d-]	.	(4a--	.	#viio7/ii
.	.	[4F-X	.	.	.	.	.	.
.	.	.	.	[8d-	.	(16aLL)	.	.
.	.	.	.	.	.	16g-JJ)	.	.
=41	=41	=41	=41	=41	=41	=41	=41	=41
4.BB-	.	8F-]	.	4d-]	.	4g-	.	V65/ii
.	.	4D-	.	.	.	.	.	.
.	.	.	.	[8G-	.	8g-	.	.
=42	=42	=42	=42	=42	=42	=42	=42	=42
8C-	.	8E--X	.	8G-]	.	(8.g-L	.	ii
[4C-	.	[4E--	.	[4G-	.	.	.	.
.	.	.	.	.	.	16e--XL)	.	.
.	.	.	.	.	.	(16g-'	.	.
.	.	.	.	.	.	16e--'JJ)	.	.
=43	=43	=43	=43	=43	=43	=43	=43	=43
8C-]	.	8E--]	.	8G-]	.	(8d-L	.	.
[4C-	.	[4G-	.	[4e--X	.	8c-XJ)	.	.
.	.	.	.	.	.	(16c-'LL	.	.
.	.	.	.	.	.	16e--XJJ)	.	.
=44	=44	=44	=44	=44	=44	=44	=44	=44
8C-L]	.	8G-]	.	8e--]	.	(8g-L	.	.
8FF	.	[4A-	.	[4e--X	.	8cc-)	.	#viio7/vi
[8FJ	.	.	.	.	.	(16ee--X'L	.	.
.	.	.	.	.	.	16cc-'JJ)	.	.
=45	=45	=45	=45	=45	=45	=45	=45	=45
8F]	.	8A-]	.	8e--]	.	(8b--XL	.	#viio7(4)/vi
!LO:TX:b:i:t=cresc.	!	!LO:TX:b:i:t=cresc.	!	!LO:TX:b:i:t=cresc.	!	!LO:TX:b:i:t=cresc.	!	!
[4F	.	[4A-	.	[4c-	.	8a-X)	.	#viio7/vi
.	.	.	.	.	.	(16ee--X'L	.	.
.	.	.	.	.	.	16cc-'JJ)	.	.
=46	=46	=46	=46	=46	=46	=46	=46	=46
8FL]	.	8A-L]	.	8c-L]	.	(8b--XL	.	#viio7(4)/vi
8F	.	8D- 8A-	.	8c-	.	8a-)	.	V7/vi
[8FFJ	.	[8D-J [8A-	.	[8c-J	.	(16cc-'L	.	V65/vi
.	.	.	.	.	.	16a-'JJ)	.	.
=47	=47	=47	=47	=47	=47	=47	=47	=47
(8FFL]	.	8D-] 8A-]	.	8c-]	.	(8cc-L	.	.
8GG-	.	[4D- [4G-	.	[4B--X	.	8b--X)	.	i.i
[8DD-J)	.	.	.	.	.	(16dd-'L	.	.
.	.	.	.	.	.	16b--'JJ)	.	.
=48	=48	=48	=48	=48	=48	=48	=48	=48
(8DD-L]	.	8D-L] 8G-]	.	8B--L]	.	(8a-	.	i64(9)
8EE-	.	8G-	.	8c	.	8g-)	.	#viio/V
.	.	.	.	.	.	32qqa-/LLL	.	.Ger6
.	.	.	.	.	.	32qqg-/	.	.
.	.	.	.	.	.	32qqf/	.	.
.	.	.	.	.	.	32qqg-/JJJ	.	.
8EE--XJ)	.	8G-J	.	8cJ	.	(16b--X'LL	.	.
.	.	.	.	.	.	16g-'JJ)	.	.
=49	=49	=49	=49	=49	=49	=49	=49	=49
8DD-	p	8A-	p	8d-	p	[8f	p	V\\
8r	.	8r	.	8r	.	4f] 4a-	.	#viio7
!LO:TX:b:i:t=espressivo	!	!	!	!	!	!	!	!
(16e--X'LL	.	8r	.	8r	.	.	.	.
16c-X'JJ)	.	.	.	.	.	.	.	.
=50	=50	=50	=50	=50	=50	=50	=50	=50
8B--XL	.	8r	.	8r	.	4.r	.	.
8A-J	.	8r	.	8r	.	.	.	.
!LO:TX:a:i:t=espressivo	!	!	!	!LO:TX:b:i:t=espressivo	!	!	!	!
8r	.	(16c-'LL	.	(16ee--X'LL	.	.	.	.
.	.	16A-'JJ)	.	16cc-X'JJ)	.	.	.	.
=51	=51	=51	=51	=51	=51	=51	=51	=51
8r	.	(8G-L	.	(8b--XL	.	8r	.	.
8r	.	8FJ)	.	8a-J)	.	8r	.	.
(16e-'LL	.	8r	.	8r	.	[8f [8a-	.	V2
16c-'JJ)	.	.	.	.	.	.	.	.
=52	=52	=52	=52	=52	=52	=52	=52	=52
(8B-L	.	8r	.	8r	.	16fLL] 16a-]	.	.
.	.	.	.	.	.	(16b-'	.	.
8A-J)	.	8r	.	8r	.	16cc-'	.	.
.	.	.	.	.	.	16dd-'J)	.	.
8r	.	(16c-'LL	.	(16ee-'LL	.	[8ee-J	.	.
.	.	16A-'JJ)	.	16cc-'JJ)	.	.	.	.
=53	=53	=53	=53	=53	=53	=53	=53	=53
8r	.	(8G-L	.	(8b-L	.	16ee-LL]	.	I.vi6
.	.	.	.	.	.	16ee-	.	.
8r	.	8FJ)	.	8a-J)	.	(16ee-	.	V6(2)
.	.	.	.	.	.	16dd-JJ)	.	V6
8D-	sf	8F	sf	8A- 8d-	sf	16dd-'LL	sf	V
.	.	.	.	.	.	16a-'JJ	.	.
=54	=54	=54	=54	=54	=54	=54	=54	=54
4GG-	.	4D- 4G-	.	4B- 4d-	.	4b-	.	I
8E-	sf	8G	sf	8B- 8e-	sf	16ee-'LL	sf	V/ii
.	.	.	.	.	.	16b-'JJ	.	.
=55	=55	=55	=55	=55	=55	=55	=55	=55
4AA-	.	4E- 4A-	.	4c- 4e-	.	4cc-	.	ii
8E-	sf	8G	sf	8B- 8e-	sf	16ee-'LL	sf	V/ii
.	.	.	.	.	.	16b-'JJ	.	.
=56	=56	=56	=56	=56	=56	=56	=56	=56
!LO:TX:b:i:t=dim.	!	!LO:TX:b:i:t=dim.	!	!LO:TX:b:i:t=dim.	!	!LO:TX:b:i:t=dim.	!	!
4AA-	.	4E- 4A-	.	4c- 4e-	.	4cc-	.	ii
(8AA-	.	(8A-	.	(8e-	.	(8cc-	.	.
=57	=57	=57	=57	=57	=57	=57	=57	=57
4BB-)	.	4F)	.	4d)	.	4b-)	.	V/vi
8BB-	.	8F	.	8d	.	8b-	.	.
=58	=58	=58	=58	=58	=58	=58	=58	=58
8r	.	8r	.	8r	.	8r	.	.
!LO:TX:b:i:t=espress.	!	!LO:TX:b:i:t=espress.	!	!LO:TX:b:i:t=espress.	!	!LO:TX:b:i:t=espress.	!	!
8C-	.	8E-	.	8A- 8e-	.	8a-	.	ii6
8r	.	8r	.	8r	.	8r	.	.
=59	=59	=59	=59	=59	=59	=59	=59	=59
8r	.	8r	.	8r	.	8r	.	.
8C	.	8E- 8G-X	.	8A- 8e-	.	8a-	.	V65/V
8r	.	8r	.	8r	.	8r	.	.
=60	=60	=60	=60	=60	=60	=60	=60	=60
8r	.	8r	.	8r	.	8r	.	.
8C	.	8E- 8G-	.	8A- 8e-	.	8a-	.	.
8r	.	8r	.	8r	.	8r	.	.
=61	=61	=61	=61	=61	=61	=61	=61	=61
8r	.	8r	.	8r	.	8r	.	.
8D-	.	8G-	.	8A- 8d-X	.	[8a-L	.	V7(4)
8r	.	8r	.	8r	.	(32a-LL]	.	.
.	.	.	.	.	.	32b-	.	.
.	.	.	.	.	.	32cc-	.	.
.	.	.	.	.	.	32a-JJJ	.	.
=62	=62	=62	=62	=62	=62	=62	=62	=62
8r	.	8r	.	8r	.	32fLLL	.	V7
.	.	.	.	.	.	32g-	.	.
.	.	.	.	.	.	32a-	.	.
.	.	.	.	.	.	32fJJJ	.	.
8d-	pp	16a-	pp	16cc-	pp	32e-LLL	.	.
.	.	.	.	.	.	32d-	.	.
.	.	16r	.	16r	.	32f	.	.
.	.	.	.	.	.	32d-JJJ	.	.
8r	.	8r	.	8r	.	32a-LLL	.	.
.	.	.	.	.	.	32f	.	.
.	.	.	.	.	.	32cc-	.	.
.	.	.	.	.	.	32a-JJJ)	.	.
=63	=63	=63	=63	=63	=63	=63	=63	=63
4.r	.	4.r	.	4.r	.	(16ee-'LL	.	@none
.	.	.	.	.	.	16dd-'JJ)	.	.
.	.	.	.	.	.	(8.ccL	>	.
.	.	.	.	.	.	16cc-XJk)	]]	.
=64	=64	=64	=64	=64	=64	=64	=64	=64
!	!	!	!	!	!	!LO:TX:b:i:t=cantabile	!	!
(24GG-LL	p	8r	.	8r	.	(4b-	p	I[I
24BB-	.	.	.	.	.	.	.	.
24D-JJ)	.	.	.	.	.	.	.	.
!	!LO:DY:a	!	!	!	!	!	!	!
(8G-L	p	(24G-LL	.	8r	.	.	.	.
.	.	24B-	.	.	.	.	.	.
.	.	24dJJ	.	.	.	.	.	.
8GG-J)	.	24e-LL	.	(24c-LL	p	24dd-LL	.	IV(9)
.	.	24g-	.	24e-	.	24cc-	.	IV6
.	.	24d-XJJ)	.	24g-JJ)	.	24b-JJ)	.	I64
=65	=65	=65	=65	=65	=65	=65	=65	=65
(24GG-LL	.	(16cLL	.	(8e-L	.	(8b-L	.	#vii%7/V
24C	.	.	.	.	.	.	.	.
.	.	16CJJ)	.	.	.	.	.	.
24E-JJ)	.	.	.	.	.	.	.	.
(8G-L	.	(24C-XLL	.	16fL	.	8a-	.	#viio2/vi
.	.	24D	.	.	.	.	.	.
.	.	.	.	16c-JJ	.	.	.	.
.	.	24FJJ	.	.	.	.	.	.
8GG-J)	.	24G-LL	.	24B-LL	.	8b-J)	.	I]
.	.	24B-	.	24d-	.	.	.	.
.	.	24d-XJJ)	.	24g-JJ)	.	.	.	.
=66	=66	=66	=66	=66	=66	=66	=66	=66
(24EE-LL	.	(24G-LL	.	(24c-LL	.	(8cc-L	.	IV6
24FF	.	24D	.	24A-	.	.	.	.
24D-JJ)	.	24D-XJJ)	.	24A-JJ)	.	.	.	.
(8GG-L	.	(24D-LL	.	8G-L	.	8b-J)	.	I
.	.	24G-	.	.	.	.	.	.
.	.	24B-JJ)	.	.	.	.	.	.
8BB-J)	.	(16G-LL	.	(24d-L	.	(64dd-LLLL	.	I6
.	.	.	.	.	.	64ff	.	.
.	.	.	.	.	.	64gg-	.	.
.	.	.	.	24g-	.	.	.	.
.	.	.	.	.	.	64ff	.	.
.	.	16D-JJ)	.	.	.	64ee-	.	.
.	.	.	.	.	.	64dd-	.	.
.	.	.	.	24b-JJ)	.	.	.	.
.	.	.	.	.	.	64cc-	.	.
.	.	.	.	.	.	64b-JJJJ)	.	.
=67	=67	=67	=67	=67	=67	=67	=67	=67
(24DD-LL	.	8F	.	8f	.	4a-	.	V7
24AA-	.	.	.	.	.	.	.	.
24CJJ)	.	.	.	.	.	.	.	.
4D-	.	(24FLL	.	8r	.	.	.	.
.	.	24A-	.	.	.	.	.	.
.	.	24cJJ)	.	.	.	.	.	.
.	.	(16d-LL	.	(24c-LL	.	(8a-	.	.
.	.	.	.	24f	.	.	.	.
.	.	16FJJ)	.	.	.	.	.	.
.	.	.	.	24a-JJ)	.	.	.	.
=68	=68	=68	=68	=68	=68	=68	=68	=68
!LO:TX:b:i:t=cresc.	!	!LO:TX:b:i:t=cresc.	!	!LO:TX:b:i:t=cresc.	!	!LO:TX:b:i:t=cresc.	!	!
(24GG-LL	.	8G-	.	(16b-LL	.	8b-L	.	I
24BB-	.	.	.	.	.	.	.	.
.	.	.	.	16B-JJ)	.	.	.	.
[24D-JJ)	.	.	.	.	.	.	.	.
8D-L]	.	(24BB-LL	.	8r	.	[8g-J)	.	.
.	.	24D-	.	.	.	.	.	.
.	.	24FJJ)	.	.	.	.	.	.
8GG-J	.	8G-	.	(24B-LL	.	32g-LLL]	.	.
.	.	.	.	.	.	64qqa-/LLLL	.	.
.	.	.	.	.	.	64qqg-/	.	.
.	.	.	.	.	.	64qqf/JJJJ	.	.
.	.	.	.	.	.	(32g-	.	.
.	.	.	.	24d-	.	.	.	.
.	.	.	.	.	.	32a-	.	.
.	.	.	.	24g-JJ)	.	.	.	.
.	.	.	.	.	.	32b-JJJ)	.	.
=69	=69	=69	=69	=69	=69	=69	=69	=69
(24FFLL	.	(8A-	.	(16a-LL	.	(8cc-L	.	#viio65/vi
24C-X	.	.	.	.	.	.	.	.
.	.	.	.	16A-JJ)	.	.	.	.
[24DJJ)	.	.	.	.	.	.	.	.
8DL]	.	24C-LL	.	8r	.	[8a-J)	.	.
.	.	24D	.	.	.	.	.	.
.	.	24FJ	.	.	.	.	.	.
8EE-J	.	8G-J)	.	(24c-LL	.	32a-LLL]	.	VI6/vi-IV6
.	.	.	.	.	.	64qqb-/LLLL	.	.
.	.	.	.	.	.	64qqa-/	.	.
.	.	.	.	.	.	64qqg/JJJJ	.	.
.	.	.	.	.	.	(32a-	.	.
.	.	.	.	24e-	.	.	.	.
.	.	.	.	.	.	32b-	.	.
.	.	.	.	24g-JJ)	.	.	.	.
.	.	.	.	.	.	32cc-JJJ)	.	.
=70	=70	=70	=70	=70	=70	=70	=70	=70
(24DDLL	>	(24FLL	>	(24fLL	>	[8b-	>	V65/vi
24FF)	.	24A-)	.	24B-)	.	.	.	.
24BB-JJ	.	24A-JJ	.	24B-JJ	.	.	.	.
(24EE-LL	.	(24G-LL	.	(24B-LL	.	(24b-LL]	.	vi-ii/V
24FF	.	24A-	.	24d	.	24a-	.	.
24GG-JJ)	.	24B-JJ)	.	24e-JJ)	.	24g-XJJ)	.	.
24AA-LL	.	(24A-LL	.	(24d-XLL	.	(24fLL	.	V(64)/V
24AA-	.	24E-	.	24c)	.	24g-	.	V7/V
24AA-JJ	]]	24G-JJ)	]]	24cJJ	]]	24e-JJ)	]]	.
=71	=71	=71	=71	=71	=71	=71	=71	=71
(24DD-XLL	.	(24G-LL	.	(24cLL	.	(8e-L	.	V(94#7)
24AA-	.	24A-	.	24G-	.	.	.	.
24CJJ)	.	24G-JJ	.	24A-JJ)	.	.	.	.
4D-X	.	24FLL	.	[8A-	.	8d-J)	.	V\\
.	.	24A-	.	.	.	.	.	.
.	.	24cJJ	.	.	.	.	.	.
.	.	24d-LL	.	24A-LL]	.	8r	.	.
.	.	24F	.	(24A-	.	.	.	.
.	.	24E-JJ)	.	24G-JJ	.	.	.	.
=72	=72	=72	=72	=72	=72	=72	=72	=72
(24C-XLL	p	8D-X	p	8FL	.	8r	.	V2
24F	.	.	.	.	.	.	.	.
24A-JJ)	.	.	.	.	.	.	.	.
(8BB-L	.	(24D-LL	.	8G-J)	.	[4d-	p	V43
.	.	24G-	.	.	.	.	.	.
.	.	24B-JJ)	.	.	.	.	.	.
8AA-J)	.	8c-X	.	(24A-LL	.	.	.	.
.	.	.	.	24d-	.	.	.	.
.	.	.	.	24fJJ)	.	.	.	.
=73	=73	=73	=73	=73	=73	=73	=73	=73
[4GG-	.	[4B-	.	[4g-	.	(24d-LL]	.	I
.	.	.	.	.	.	24G-	.	.
.	.	.	.	.	.	24A-JJ	.	.
.	.	.	.	.	.	24B-LL	.	.
.	.	.	.	.	.	24d-	.	.
.	.	.	.	.	.	24g-JJ	.	.
(24GG-LL]	.	24B-LL]	.	24g-LL]	.	24b-LL	.	.
24DD-	.	(24B-	.	(24d-	.	24dd-	.	.
24EE-JJ)	.	24A-JJ)	.	24c-XJJ)	.	24cc-JJ)	.	vi64
=74	=74	=74	=74	=74	=74	=74	=74	=74
(24FF-XLL	.	(8G-L	.	(8B-L	.	(8b-L	.	V2/IV
24BB-	.	.	.	.	.	.	.	.
24D-JJ)	.	.	.	.	.	.	.	.
(8EE-L	.	24C-L	.	8G-J	.	8cc-	.	IV6
.	.	24E-	.	.	.	.	.	.
.	.	24G-JJ	.	.	.	.	.	.
8DD-J)	.	8F-X)	.	24B-LL	.	8dd-J)	.	V64/IV
.	.	.	.	24d-	.	.	.	.
.	.	.	.	24g-JJ)	.	.	.	.
=75	=75	=75	=75	=75	=75	=75	=75	=75
(24CC-LL	.	(8E-L	.	(16g-KL	.	[4ee-	<	IV
24EE-	.	.	.	.	.	.	.	.
.	.	.	.	[8.cc-J)	.	.	.	.
24GG-JJ	.	.	.	.	.	.	.	.
24BB-LL	.	8G-J)	.	.	.	.	.	.
24C-	.	.	.	.	.	.	.	.
24E-JJ	.	.	.	.	.	.	.	.
24G-LL	.	(24e-LL	.	(24cc-LL]	.	(24ee-LL]	.	.
24B-	sf	24d-	sf	24dd-	sf	24ff-X	sf	.
24c-JJ)	.	24e-JJ)	.	24cc-JJ)	.	24ee-JJ)	[[	.
=76	=76	=76	=76	=76	=76	=76	=76	=76
(24EE-LL	.	(16e-KL	.	(16cc-KL	.	(16ee-KL	.	V7/ii
24GG	.	.	.	.	.	.	.	.
.	.	[8.GJ)	.	[8.b-J)	.	[8.dd-J)	.	.
24BB-JJ	.	.	.	.	.	.	.	.
24DLL	.	.	.	.	.	.	.	.
24E-	.	.	.	.	.	.	.	.
24GJJ	.	.	.	.	.	.	.	.
24B-LL)	.	24GLL]	.	(24b-LL]	.	(24dd-LL]	.	.
(24EE-	sf	24e-	sf	24cc-	sf	24ee-	sf	.
24GGJJ)	.	24e-JJ	.	24b-JJ)	.	24dd-JJ)	.	.
=77	=77	=77	=77	=77	=77	=77	=77	=77
(24AA-LL	.	(16e-KL	.	(16b-KL	.	(16dd-KL	.	ii
24C-	.	.	.	.	.	.	.	.
.	.	[8.E-J)	.	[8.a-J)	.	[8.cc-J)	.	.
24E-JJ	.	.	.	.	.	.	.	.
24GLL	.	.	.	.	.	.	.	.
24A-	.	.	.	.	.	.	.	.
24c-JJ	.	.	.	.	.	.	.	.
24e-LL)	.	(24E-LL]	.	(24a-LL]	.	(24cc-LL]	.	.
(24AA-	.	24c-	.	24e-	.	24ee-	.	.
24BB-JJ)	.	24GJJ)	.	24e-JJ)	.	24dd-JJ)	.	.
=78	=78	=78	=78	=78	=78	=78	=78	=78
!LO:TX:b:i:t=cresc.	!	!LO:TX:b:i:t=cresc.	!	!LO:TX:b:i:t=cresc.	!	!LO:TX:b:i:t=cresc.	!	!
(24CC-LL	.	[4A-	.	[4e-	.	(16dd-LL	.	ii6
24EE-	.	.	.	.	.	.	.	.
.	.	.	.	.	.	16cc-	.	.
24AA-JJ	.	.	.	.	.	.	.	.
24C-LL	.	.	.	.	.	16b-	.	.
24E-	.	.	.	.	.	.	.	.
.	.	.	.	.	.	16a-TJJ	.	.
24A-JJ	.	.	.	.	.	.	.	.
.	.	.	.	.	.	16qqg/LL	.	V2
.	.	.	.	.	.	16qqa-/JJ	.	.
24c-LL)	.	24A-LL]	.	24e-LL]	.	24ffLL	.	.
(24C-	.	(24A-	.	(24e-	.	24ee-	.	.
24CC-JJ)	.	24d-JJ)	.	24A-JJ)	.	24fJJ)	.	.
=79	=79	=79	=79	=79	=79	=79	=79	=79
(24BBB-LL	.	(24d-LL	.	(24G-LL	.	(32a-LLL	.	I6
.	.	.	.	.	.	32g-X	.	.
24EE-	.	24G-X	.	24c-	.	.	.	.
.	.	.	.	.	.	32dd-	.	IV6
24CC-JJ)	.	24e-JJ)	.	24g-JJ)	.	.	.	.
.	.	.	.	.	.	32cc-JJJ)	.	IV
(24DD-LL	f	(24d-LL	f	(24g-LL	f	8b-L	f	V(64)
24D-	.	24B-	.	24d-	.	.	.	.
24DD-JJ)	.	24G-JJ)	.	24B-JJ)	.	.	.	.
24DD-LL	>	24FLL	>	24c-LL	>	(24a-L	>	V7
24DD-	.	24F	.	24c-	.	24ee-	.	.
24DD-JJ	]]	24FJJ	]]	24c-JJ	]]	24dd-JJ)	]]	.
=80	=80	=80	=80	=80	=80	=80	=80	=80
(24GG-LL	p	16G-	p	8B-	p	(8g-L	p	I[I
24AA-	.	.	.	.	.	.	.	.
.	.	16r	.	.	.	.	.	.
24BB-JJ)	.	.	.	.	.	.	.	.
4GG- 4C-	.	(24E-LL	.	8r	.	8.e-	.	IV
.	.	24F	.	.	.	.	.	.
.	.	24GJJ)	.	.	.	.	.	.
.	.	8A-	.	(24A-LL	.	.	.	.
.	.	.	.	24B-	.	.	.	.
.	.	.	.	.	.	16a-Jk	.	.
.	.	.	.	24c-JJ)	.	.	.	.
=81	=81	=81	=81	=81	=81	=81	=81	=81
24GG-LL	.	24C-LL	.	4.A- 4.d-	.	8g-L	.	V2(4)
24GG-	.	24C-	.	.	.	.	.	.
24GG-JJ	.	24C-JJ	.	.	.	.	.	.
24GG-LL	.	24C-LL	.	.	.	8f	.	V2
24GG-	.	24C-	.	.	.	.	.	.
24GG-JJ	.	24C-JJ	.	.	.	.	.	.
24GG-LL	.	24C-LL	.	.	.	16e-L	.	.
24GG-	.	24C-	.	.	.	.	.	.
.	.	.	.	.	.	16d-JJ)	.	.
24GG-JJ	.	24C-JJ	.	.	.	.	.	.
=82	=82	=82	=82	=82	=82	=82	=82	=82
(24GG-LL	.	(24BB-LL	.	8B- 8d-	.	(16d-LL	.	I6
24AA-	.	24C-	.	.	.	.	.	.
.	.	.	.	.	.	16g-JJ)	.	.
24BB-JJ)	.	24D-JJ	.	.	.	.	.	.
4GG- 4C-	.	24E-LL	.	8r	.	[8e-L	.	IV
.	.	24F	.	.	.	.	.	.
.	.	24GJJ	.	.	.	.	.	.
.	.	8A-)	.	(24A-LL	.	(24e-L]	.	.
.	.	.	.	24B-	.	24b-	.	.
.	.	.	.	24c-JJ)	.	24a-JJ)	.	.
=83	=83	=83	=83	=83	=83	=83	=83	=83
24GG-LL	.	24C-LL	.	[4A- [4d-	.	(8g-L	.	V2(4)
24GG-	.	24C-	.	.	.	.	.	.
24GG-JJ	.	24C-JJ	.	.	.	.	.	.
24GG-LL	.	24C-LL	.	.	.	[8fJ)	.	V2
24GG-	.	24C-	.	.	.	.	.	.
24GG-JJ	.	24C-JJ	.	.	.	.	.	.
24GG-LL	.	24C-LL	.	(24A-LL] 24d-]	.	(24fLL]	.	.
24GG-	.	24C-	.	24e-	.	24e-	.	.
24GG-JJ	.	24C-JJ	.	24fJJ)	.	24d-JJ)	.	.
=84	=84	=84	=84	=84	=84	=84	=84	=84
!LO:TX:b:i:t=cresc.	!	!LO:TX:a:i:t=cresc.	!	!LO:TX:a:i:t=cresc.	!	!LO:TX:a:i:t=cresc.	!	!
24GG-LL	.	24BB-LL	.	24g-LL	.	(8d-L	.	I6]
24GG-	.	24G-X	.	24b-	.	.	.	.
24GG-JJ	.	24G-JJ	.	24b-JJ	.	.	.	.
24CC-LL	.	24G-LL	.	24b-LL	.	8e-	.	ii65
24CC-	.	24G-	.	24a-	.	.	.	.
24CC-JJ	.	24G-JJ	.	24a-JJ	.	.	.	.
24DD-LL	.	24FLL	.	24a-LL	.	8fJ)	.	V7
24DD-	.	24A-	.	24cc-	.	.	.	.
24DD-JJ	.	24A-JJ	.	24cc-JJ	.	.	.	.
=85	=85	=85	=85	=85	=85	=85	=85	=85
.	.	.	.	.	.	8qf/	sf >	.
(24DD-LL	sf >	8A-	sf >	(4cc-	sf >	4.a-	]]	.
24AA-	.	.	.	.	.	.	.	.
[24D-JJ)	.	.	.	.	.	.	.	.
8D-L]	.	24FLL	.	.	.	.	.	.
.	.	24A-	.	.	.	.	.	.
.	.	[24c-JJ	.	.	.	.	.	.
8DD-J	]]	8c-]	]]	24fLL	.	.	.	.
.	.	.	.	24a-	.	.	.	.
.	.	.	.	24dd-JJ)	]]	.	.	.
=86	=86	=86	=86	=86	=86	=86	=86	=86
8GG-L	p	8B-L	p	8g-	p	8g-	p	I
(8D-J	sf >	(8F-XJ	sf >	8r	.	16r	.	V7/IV
.	.	.	.	.	.	8g-L	>	.
16C-LL	.	16E-LL	.	8r	.	.	.	.
16GG-JJ)	]]	16D-JJ)	]]	.	.	16g-Jk	]]	.
=87	=87	=87	=87	=87	=87	=87	=87	=87
4.CC-	.	(32E-LLL	.	4.r	.	(8.g-L	.	IV.I
.	.	32G-	.	.	.	.	.	.
.	.	32A-	.	.	.	.	.	.
.	.	32G-JJJ	.	.	.	.	.	.
.	.	32E-LLL	.	.	.	.	.	.
.	.	32G-	.	.	.	.	.	.
.	.	32E-	.	.	.	16cc-XL	.	.
.	.	32G-JJJ	.	.	.	.	.	.
.	.	32E-LLL	.	.	.	16dd-	.	.
.	.	32G-	.	.	.	.	.	.
.	.	32E-	.	.	.	16ee-JJ)	.	.
.	.	32G-JJJ)	.	.	.	.	.	.
=88	=88	=88	=88	=88	=88	=88	=88	=88
4BBB-	.	(32D-LLL	.	4.r	.	(8ee-L	.	V65
.	.	32G-	.	.	.	.	.	.
.	.	32A-	.	.	.	.	.	.
.	.	32G-JJJ	.	.	.	.	.	.
.	.	32D-LLL	.	.	.	8ff-XJ	.	.
.	.	32G-	.	.	.	.	.	.
.	.	32D-	.	.	.	.	.	.
.	.	32G-JJJ	.	.	.	.	.	.
(16BBB-LL	.	32D-LLL	.	.	.	16dd-LL	.	.
.	.	32G-	.	.	.	.	.	.
16CC-JJ)	.	32E-	.	.	.	16cc-XJJ)	.	.
.	.	32G-JJJ)	.	.	.	.	.	.
=89	=89	=89	=89	=89	=89	=89	=89	=89
4DD-	.	(32F-XLLL	.	4.r	.	8.b-L	.	V43
.	.	32G-	.	.	.	.	.	.
.	.	32A-	.	.	.	.	.	.
.	.	32G-JJJ	.	.	.	.	.	.
.	.	32F-LLL	.	.	.	.	.	.
.	.	32G-	.	.	.	.	.	.
.	.	32F-	.	.	.	(16b-L	.	.
.	.	32G-JJJ	.	.	.	.	.	.
(16CC-LL	.	32E-LLL	.	.	.	16cc-X	.	.
.	.	32G-	.	.	.	.	.	.
16BBB-JJ)	.	32D-	.	.	.	16dd-JJ)	.	.
.	.	32G-JJJ)	.	.	.	.	.	.
=90	=90	=90	=90	=90	=90	=90	=90	=90
4CC-	.	(32E-LLL	.	4.r	.	(8dd-L	.	I
.	.	32G-	.	.	.	.	.	.
.	.	32A-	.	.	.	.	.	.
.	.	32G-JJJ	.	.	.	.	.	.
.	.	32E-LLL	.	.	.	8.ee-J)	.	.
.	.	32G-	.	.	.	.	.	.
.	.	32E-	.	.	.	.	.	.
.	.	32G-JJJ	.	.	.	.	.	.
(16C-LL	.	32E-LLL	.	.	.	.	.	.
.	.	32G-	.	.	.	.	.	.
16BB-JJ)	.	32D-	.	.	.	16ee-	.	.
.	.	32GJJJ)	.	.	.	.	.	.
=91	=91	=91	=91	=91	=91	=91	=91	=91
!LO:TX:b:i:t=cresc.	!	!LO:TX:b:i:t=cresc.	!	!	!	!LO:TX:b:i:t=cresc.	!	!
8.AA-L	.	(32C-LLL	.	4.r	.	8.ee-L	.	vi
.	.	32E-	.	.	.	.	.	.
.	.	32A-	.	.	.	.	.	.
.	.	32E-JJJ	.	.	.	.	.	.
.	.	32A-LLL	.	.	.	.	.	.
.	.	32E-	.	.	.	.	.	.
(16AA-L	.	32A-	.	.	.	16a-L	.	.
.	.	32E-JJJ	.	.	.	.	.	.
16C-	.	32A-LLL	.	.	.	(16a-	.	.
.	.	32E-	.	.	.	.	.	.
16E-JJ)	.	32G	.	.	.	16b-JJ)	.	.
.	.	32E-JJJ)	.	.	.	.	.	.
=92	=92	=92	=92	=92	=92	=92	=92	=92
(8A-L	.	(32E-LLL	.	4.r	.	(8b-L	.	.
.	.	32G	.	.	.	.	.	.
.	.	32A-	.	.	.	.	.	.
.	.	32GJJJ)	.	.	.	.	.	.
8AA-J	.	(32E-LLL	.	.	.	8cc-J	.	.
.	.	32A-	.	.	.	.	.	.
.	.	32B-	.	.	.	.	.	.
.	.	32A-JJJ)	.	.	.	.	.	.
16AALL	.	(32E-LLL	.	.	.	16ccLL	.	.
.	.	32G-X	.	.	.	.	.	.
16BB-JJ)	.	32D-	.	.	.	16dd-JJ)	.	V6
.	.	32G-JJJ)	.	.	.	.	.	.
=93	=93	=93	=93	=93	=93	=93	=93	=93
(16BB-LL	.	(32D-LLL	.	4.r	.	8dd-L	.	V65
.	.	32G-	.	.	.	.	.	.
16C-J	.	32E-	.	.	.	.	.	.
.	.	32G-JJJ)	.	.	.	.	.	.
8D-J)	.	(32BB-LLL	.	.	.	16g-L	.	.
.	.	32D-	.	.	.	.	.	.
.	.	.	.	.	.	32qqa-/LLL	.	.
.	.	.	.	.	.	32qqg-/	.	.
.	.	.	.	.	.	32qqf/JJJ	.	.
.	.	32G-	.	.	.	(16g-	.	.
.	.	32D-JJJ	.	.	.	.	.	.
*clefC4	*	*	*	*	*	*	*	*
[8f-X	.	32G-LLL	.	.	.	16b-	.	.
.	.	32D-	.	.	.	.	.	.
.	.	32G-	.	.	.	16a-JJ)	.	.
.	.	32D-JJJ)	.	.	.	.	.	.
=94	=94	=94	=94	=94	=94	=94	=94	=94
(16f-LL]	.	(32D-LLL	.	8r	.	(16g-LL	.	.
.	.	32G-	.	.	.	.	.	.
16d-	.	32F-X	.	.	.	16b-	.	.
.	.	32G-JJJ)	.	.	.	.	.	.
16B-	.	(32D-LLL	.	8r	.	16dd-	.	.
.	.	32G-	.	.	.	.	.	.
16c-	.	32C-	.	.	.	16ee-	.	.
.	.	32G-JJJ	.	.	.	.	.	.
16d-	.	32BB-LLL	.	16r	.	16ff-X	.	.
.	.	32G-	.	.	.	.	.	.
16G-JJ)	.	32BB-	.	(32d-LLL	.	16gg-JJ)	.	.
.	.	32D-JJJ)	.	32f-XJJJ)	.	.	.	.
=95	=95	=95	=95	=95	=95	=95	=95	=95
!LO:TX:b:i:t=espress.	!	!	!	!	!	!	!	!
(8.G-L	.	4.C-	.	(32e-LLL	.	8ee-	.	I
.	.	.	.	32G-	.	.	.	.
.	.	.	.	32A-	.	.	.	.
.	.	.	.	32G-JJJ	.	.	.	.
.	.	.	.	32e-LLL	.	8r	.	.
.	.	.	.	32G-	.	.	.	.
16c-L	.	.	.	32e-	.	.	.	.
.	.	.	.	32G-JJJ	.	.	.	.
16d-	.	.	.	32e-LLL	.	8gg-	.	.
.	.	.	.	32G-	.	.	.	.
16e-JJ)	.	.	.	32e-	.	.	.	.
.	.	.	.	32G-JJJ)	.	.	.	.
=96	=96	=96	=96	=96	=96	=96	=96	=96
(8e-L	.	4BB-	.	(32d-LLL	.	(16gg-LL	.	V65
.	.	.	.	32G-	.	.	.	.
.	.	.	.	32A-	.	16bb-	.	.
.	.	.	.	32G-JJJ	.	.	.	.
8f-X	.	.	.	32d-LLL	.	16ddd-	.	.
.	.	.	.	32G-	.	.	.	.
.	.	.	.	32d-	.	16eee-JJ)	.	.
.	.	.	.	32G-JJJ	.	.	.	.
16d-L	.	(16BB-LL	.	32d-LLL	.	8fff-X	.	.
.	.	.	.	32G-	.	.	.	.
16c-JJ)	.	16C-JJ)	.	32e-	.	.	.	.
.	.	.	.	32G-JJJ)	.	.	.	.
=97	=97	=97	=97	=97	=97	=97	=97	=97
8.B-L	.	4D-	.	(32f-XLLL	.	16r	.	V43
.	.	.	.	32G-	.	.	.	.
.	.	.	.	32A-	.	(16bb-LL	.	.
.	.	.	.	32G-JJJ	.	.	.	.
.	.	.	.	32f-LLL	.	16ccc-	.	.
.	.	.	.	32G-	.	.	.	.
(16B-L	.	.	.	32f-	.	16ddd-JJ)	.	.
.	.	.	.	32G-JJJ	.	.	.	.
16c-	.	(16C-LL	.	32e-LLL	.	8r	.	.
.	.	.	.	32G-	.	.	.	.
16d-JJ)	.	16BB-JJ)	.	32g-	.	.	.	.
.	.	.	.	32G-JJJ)	.	.	.	.
=98	=98	=98	=98	=98	=98	=98	=98	=98
(8d-L	.	(8BB-L	.	(32g-LLL	.	16r	.	V65
.	.	.	.	32G-	.	.	.	.
.	.	.	.	32A-	.	(16ddd-LL	.	.
.	.	.	.	32G-JJJ	.	.	.	.
8.e-J)	.	8C-J)	.	32g-LLL	.	16ccc-	.	I6
.	.	.	.	32G-	.	.	.	.
.	.	.	.	32g-	.	16ddd-	.	.
.	.	.	.	32e-JJJ	.	.	.	.
.	.	(16C-LL	.	32g-LLL	.	16eee-JJ)	.	.
.	.	.	.	32e-	.	.	.	.
16e-	.	16BB-JJ)	.	32g	.	16r	.	V65/vi
.	.	.	.	32d-JJJ)	.	.	.	.
=99	=99	=99	=99	=99	=99	=99	=99	=99
!LO:TX:b:i:t=cresc.	!	!LO:TX:a:i:t=cresc.	!	!LO:TX:a:i:t=cresc.	!	!	!	!
8.e-L	.	8.C-L	.	(32a-LLL	.	16r	.	vi6
.	.	.	.	32e-	.	.	.	.
!	!	!	!	!	!	!LO:TX:b:i:t=cresc.	!	!
.	.	.	.	32f-X	.	16eee-LL	.	.
.	.	.	.	32e-JJJ	.	.	.	.
.	.	.	.	32a-LLL	.	(16eee-	.	.
.	.	.	.	32e-	.	.	.	.
16A-L	.	16C-L	.	32a-	.	16ccc-	.	.
.	.	.	.	32e-JJJ	.	.	.	.
(16A-	.	(16C-	.	32a-LLL	.	16aa-JJ)	.	.
.	.	.	.	32e-	.	.	.	.
16B-JJ)	.	16E-JJ)	.	32g	.	16r	.	V/vi
.	.	.	.	32e-JJJ)	.	.	.	.
=100	=100	=100	=100	=100	=100	=100	=100	=100
(8B-L	.	(8E-L	.	(32e-LLL	.	16r	.	I.V/ii
.	.	.	.	32g	.	.	.	.
.	.	.	.	32a-	.	(16eee-LL	.	ii
.	.	.	.	32gJJJ	.	.	.	.
8c-J)	.	8A-J)	.	32a-LLL	.	16ddd-	.	.
.	.	.	.	32e-	.	.	.	.
.	.	.	.	32a-	.	16ccc-JJ)	.	.
.	.	.	.	32e-JJJ	.	.	.	.
(16cLL	.	(16ALL	.	32g-XLLL	.	8r	.	viio/iii
.	.	.	.	32e-	.	.	.	.
16d-JJ)	.	16B-JJ)	.	32g-	.	.	.	.
.	.	.	.	32d-JJJ)	.	.	.	.
=101	=101	=101	=101	=101	=101	=101	=101	=101
8d-L	.	(16BB-LL	.	(32g-LLL	.	16r	.	I6
.	.	.	.	32d-	.	.	.	.
.	.	16C-JJ)	.	32g-	.	16ddd-LL	.	.
.	.	.	.	32e-JJJ	.	.	.	.
16G-L	.	8D-L	.	32B-LLL	.	(16ddd-	.	V(64)
.	.	.	.	32G-	.	.	.	.
32qqA-/LLL	.	.	.	.	.	.	.	.
32qqG-/	.	.	.	.	.	.	.	.
32qqF/JJJ	.	.	.	.	.	.	.	.
(16G-	.	.	.	32B-	.	16bb-	.	.
.	.	.	.	32G-JJJ	.	.	.	.
16B-	.	8D-J	.	32d-LLL	.	16gg-JJ)	.	V7
.	.	.	.	32G-	.	.	.	.
16A-JJ)	.	.	.	32c-	.	16r	.	.
.	.	.	.	32FJJJ)	.	.	.	.
=102	=102	=102	=102	=102	=102	=102	=102	=102
8G-	.	8G-L	.	8B-	.	16r	.	I\\
.	.	.	.	.	.	(16aa-LL	.	.
*clefF4	*	*	*	*	*	*	*	*
(8GG-'L	pp	(8D-' 8G-	pp	(8B--X'L	pp	16gg-JJ)	.	i.i
.	.	.	.	.	.	16r	.	.
8GG-'J)	.	8D-'J) 8G-	.	8B--'J)	.	8r	.	.
=103	=103	=103	=103	=103	=103	=103	=103	=103
(4GG-	.	(4D- 4G-	.	(4B--X	.	(4b--X	pp	.
16FFLL	.	16A-XLL (8D-	.	16c-XLL	.	16cc-XLL	.	V65
16GG-JJ)	.	16G-JJ)	.	16B--JJ)	.	16b--JJ)	.	i
=104	=104	=104	=104	=104	=104	=104	=104	=104
(4DD-	.	(8G-L 4.D-)	.	(8B--XL	.	(8b--XL	.	V(64)
.	.	8F	.	8A-	.	8a-	.	V
8GG-)	.	8G-J)	.	8B--J)	.	8b--J	.	i
=105	=105	=105	=105	=105	=105	=105	=105	=105
(8EE--XL	.	4G-	.	(8c-	.	8cc-L	.	iv6
8DD-	.	.	.	4B--X	.	8.b--X	.	iv7
8CC-J	.	(8G-	.	.	.	.	.	.
.	.	.	.	.	.	16ee--XJk)	.	.
=106	=106	=106	=106	=106	=106	=106	=106	=106
4DD-)	.	4F)	.	4A-)	.	4a-	.	V
!LO:TX:b:i:t=espress.	!	!LO:TX:b:i:t=espress.	!	!LO:TX:b:i:t=espress.	!	!LO:TX:b:i:t=espress.	!	!
(8D-	.	(8F	.	(8A- 8d-	.	(8a-	.	.
=107	=107	=107	=107	=107	=107	=107	=107	=107
4G-)	.	4G-)	.	4B--X) 4d-	.	4b--X)	.	i
(8G-	.	(8B--X	.	[8d-	.	(8b--	.	.
=108	=108	=108	=108	=108	=108	=108	=108	=108
8.F)	.	8.A-)	.	8.d-]	.	8.dd-)	.	V6
16r	.	16r	.	16r	.	16r	.	.
(8E-	.	(8G-	.	(8g-	.	(8cc-	.	VI6/vi
=109	=109	=109	=109	=109	=109	=109	=109	=109
8.D)	.	8.B-)	.	8.f)	.	8.b-)	.	V6/vi
16r	.	16r	.	16r	.	16r	.	.
(8E-	f	(8G-	f	(8g-	f	(8cc-	f	VI6/vi
=110	=110	=110	=110	=110	=110	=110	=110	=110
8.D)	.	8.B-)	.	8.f)	.	8.b-)	.	V6/vi
16r	.	16r	.	16r	.	16r	.	.
!	!LO:DY:a	!	!	!	!	!	!	!
(16CC-LL	ff ff	(16C-LL	.	(16c-LL	ff	(16cc-LL	ff	@none
16BBB-JJ)	.	16BB-JJ) 16B-	.	16B-JJ)	.	16b-JJ)	.	.
=111	=111	=111	=111	=111	=111	=111	=111	=111
(8BBB-L 8BB-	.	(8BB-L 8B-	.	(8B-L	.	(8b-L	.	.
8AAJ)	.	8AJ)	.	8AJ)	.	8aJ)	.	.
(24C-LL	p	(24c-LL	p	8r	.	8r	.	.
24BB-	.	24B-	.	.	.	.	.	.
24C-JJ)	.	24c-JJ)	.	.	.	.	.	.
=112	=112	=112	=112	=112	=112	=112	=112	=112
(8BB-L	.	(8B-L	.	4.r	.	4.r	.	.
8AAJ)	.	8AJ)	.	.	.	.	.	.
(24C-LL	.	(24c-LL	.	.	.	.	.	.
24BB-	.	24B-	.	.	.	.	.	.
24C-JJ	.	24c-JJ	.	.	.	.	.	.
=113	=113	=113	=113	=113	=113	=113	=113	=113
24BB-LL	.	24B-LL	.	8r	.	8r	.	.
24AA	.	24A	.	.	.	.	.	.
24BB-JJ	.	24B-JJ	.	.	.	.	.	.
24AA-XLL	.	24A-XLL	.	(24c-LL	p	8r	.	.
24GG	.	24G	.	24B-	.	.	.	.
24AA-JJ	.	24A-JJ	.	24c-JJ	.	.	.	.
24GG-XLL	.	24G-XLL	.	24B--XLL	.	(24e--XLL	p	.bVI6
24FF	.	24F	.	24A-X	.	24d-	.	V6
24GG-JJ)	.	24G-JJ)	.	24B--JJ)	.	24e--JJ)	.	.bVI6
=114	=114	=114	=114	=114	=114	=114	=114	=114
(24FFLL	<	(24FLL	<	(24A-LL	<	[4d-	<	V6
24EEX	.	24EX	.	24G	.	.	.	.
24FFJJ	.	24FJJ	.	24A-JJ	.	.	.	.
24EE-LL	[ >	24E-LL	[ >	24G-XLL	[ >	.	.	.
24DD	.	24D	.	24F	.	.	.	.
24EE-JJ	.	24E-JJ	.	24G-JJ	.	.	.	.
24DD-XLL	.	24D-XLL	.	24FLL	.	(16d-LL]	[ >	V7
24EE-	.	24E-	.	24G-	.	.	.	.
.	.	.	.	.	.	16c-JJ)	]]	.
24FFJJ)	]]	24FJJ)	]]	24A-JJ)	]]	.	.	.
=115	=115	=115	=115	=115	=115	=115	=115	=115
!	!	!	!	!	!	!LO:TX:b:i:t=cantabile	!	!
16GG-LL	p	16G-	.	32B-'LLL	p	(4B-	p	I[I
.	.	.	.	32g-'	.	.	.	.
16GG-JJ	.	16r	.	32b-'	.	.	.	.
.	.	.	.	32dd-'JJJ	.	.	.	.
!	!	!LO:TX:a:t=pizz.	!	!LO:TX:b:i:t=staccato	!	!	!	!
16r	p	16G-LL	.	32gg-'LLL	.	.	.	.
.	.	.	.	32dd-'	.	.	.	.
16GG-	.	16B-	.	32gg-'	.	.	.	.
.	.	.	.	32dd-'JJJ	.	.	.	.
16r	.	16e-	.	32gg-'LLL	.	16c-LL	.	I(64)
.	.	.	.	32ee-'	.	.	.	.
16GG-	.	16g-JJ	.	32gg-'	.	16B-JJ)	.	I
.	.	.	.	32dd-'JJJ	.	.	.	.
=116	=116	=116	=116	=116	=116	=116	=116	=116
16r	.	16CLL	.	32gg-'LLL	.	(8B-L	.	#viio/V
.	.	.	.	32ee-'	.	.	.	.
16GG-	.	16c	.	32gg-'	.	.	.	.
.	.	.	.	32ee-'JJJ	.	.	.	.
16r	.	16c-X	.	32ff'LLL	.	8A-	.	V2
.	.	.	.	32dd'	.	.	.	.
16GG-	.	16C-X	.	32ff'	.	.	.	.
.	.	.	.	32dd'JJJ	.	.	.	.
16r	.	16BB-	.	32gg-'LLL	.	8B-J)	.	I6]
.	.	.	.	32dd-X'	.	.	.	.
16GG-	.	16B-JJ	.	32gg-'	.	.	.	.
.	.	.	.	32cc'JJJ	.	.	.	.
=117	=117	=117	=117	=117	=117	=117	=117	=117
16EE-LL	.	16g-LL	.	32gg-LLL	.	(8c-L	.	IV6
.	.	.	.	32ee-	.	.	.	.
16FFJJ	.	16A-	.	32aa-	.	.	.	.
.	.	.	.	32dd-JJJ	.	.	.	.
16r	.	16g-	.	32aa-'LLL	.	8.B-	.	I
.	.	.	.	32dd-	.	.	.	.
16GG-	.	16G-	.	32gg-	.	.	.	.
.	.	.	.	32dd-JJJ	.	.	.	.
16r	.	16B-	.	32gg-LLL	.	.	.	.
.	.	.	.	32dd-	.	.	.	.
16BB-	.	16BB-JJ	.	32gg-	.	16d-Jk)	.	.
.	.	.	.	32dd-JJJ	.	.	.	.
=118	=118	=118	=118	=118	=118	=118	=118	=118
16r	.	16d-LL	.	32ffLLL	.	4A-	.	V
.	.	.	.	32dd-	.	.	.	.
16D-	.	16D-	.	32ff	.	.	.	.
.	.	.	.	32dd-JJJ	.	.	.	.
16r	.	16F	.	32ffLLL	.	.	.	.
.	.	.	.	32dd-	.	.	.	.
16DD-	.	16A-	.	32a-	.	.	.	.
.	.	.	.	32dd-JJJ	.	.	.	.
16r	.	16d-	.	32fLLL	.	8A-	.	.
.	.	.	.	32a-	.	.	.	.
16D-	.	16fJJ	.	32dd-	.	.	.	.
.	.	.	.	32ffJJJ	.	.	.	.
=119	=119	=119	=119	=119	=119	=119	=119	=119
!LO:TX:a:i:t=cresc.	!	!	!	!LO:TX:b:i:t=cresc.	!	!LO:TX:b:i:t=cresc.	!	!
16r	.	16BB-LL	.	32gg-LLL	.	(8B-L	.	I
.	.	.	.	32dd-	.	.	.	.
!LO:TX:b:i:t=cresc.	!	!	!	!	!	!	!	!
16GG-	.	16D-	.	32b-	.	.	.	.
.	.	.	.	32dd-JJJ	.	.	.	.
16r	.	16G-	.	32b-LLL	.	8G-	.	.
.	.	.	.	32g-	.	.	.	.
16GG-	.	16B-	.	32d-	.	.	.	.
.	.	.	.	32g-JJJ	.	.	.	.
16r	.	16d-	.	32g-LLL	.	(8B-J)	.	.
.	.	.	.	32d-	.	.	.	.
16GG-	.	16g-JJ	.	32b-	.	.	.	.
.	.	.	.	32dd-JJJ	.	.	.	.
.	.	.	.	.	.	32qqc-/LLL	.	.
.	.	.	.	.	.	32qqB-/	.	.
.	.	.	.	.	.	32qqA-/	.	.
.	.	.	.	.	.	32qqB-/JJJ	.	.
=120	=120	=120	=120	=120	=120	=120	=120	=120
16r	.	16FLL	.	32aa-LLL	.	(8c-L)	.	iio/vi
.	.	.	.	32dd	.	.	.	.
16FF	.	16A-	.	32cc-	.	.	.	.
.	.	.	.	32ddJJJ	.	.	.	.
16r	.	16c-	.	32ddLLL	.	8A-	.	.
.	.	.	.	32cc-	.	.	.	.
16FF	.	16d	.	32a-	.	.	.	.
.	.	.	.	32cc-JJJ	.	.	.	.
16r	.	16f	.	32cc-LLL	.	8c-J)	.	.
.	.	.	.	32a-	.	.	.	.
16EE-	.	16g-JJ	.	32cc-	.	.	.	.
.	.	.	.	32a-JJJ	.	.	.	.
=121	=121	=121	=121	=121	=121	=121	=121	=121
16r	.	16DLL	.	32b-LLL	.	(16B-KL	.	V6/vi
.	.	.	.	32a-	.	.	.	.
16DD'LL	.	16f	.	32ff	.	[8.b-J)	.	ii
.	.	.	.	32b-JJJ	.	.	.	.
16EE-'	>	16B-	>	32gg-LLL	>	.	.	.
.	.	.	.	32b-	.	.	.	.
16GG-'	.	16E-	.	32gg-	.	.	.	.
.	.	.	.	32ffJJJ	.	.	.	.
16AA-'	.	16A-	.	32gg-LLL	.	(48b-LLL]	>	V7/V
.	.	.	.	.	.	48a-	.	.
.	.	.	.	32dd-X	.	.	.	.
.	.	.	.	.	.	48g-JJJ	.	.
16AA-'JJ	]]	16A-JJ	]]	32gg-	.	48fLLL	.	.
.	.	.	.	.	.	48g-	.	.
.	.	.	.	32ccJJJ	]]	.	.	.
.	.	.	.	.	.	48e-JJJ)	]]	.
=122	=122	=122	=122	=122	=122	=122	=122	=122
16r	.	16cLL	.	32gg-LLL	.	(8e-L	.	V(9)
.	.	.	.	32cc	.	.	.	.
16DD-X	.	16a-	.	32dd-	.	.	.	.
.	.	.	.	32ee-JJJ	.	.	.	.
16r	.	16a-	.	32ffLLL	.	8d-J)	.	V\\
.	.	.	.	32dd-	.	.	.	.
16DD-	.	16F	.	32a-	.	.	.	.
.	.	.	.	32fJJJ	.	.	.	.
16r	.	16F	.	8d-	.	(16A-LL	.	.
16DD-	.	16E-JJ	.	.	.	16G-JJ)	.	.
=123	=123	=123	=123	=123	=123	=123	=123	=123
16r	.	16D-LL	.	8.r	.	(32FLLL	.	V2
.	.	.	.	.	.	32f	.	.
16CC-	.	16a-	.	.	.	32d-	.	.
.	.	.	.	.	.	32fJJJ	.	.
16r	.	16b-	.	.	.	32G-LLL	.	I6
.	.	.	.	.	.	32g-	.	.
16BBB-	.	16G-	.	(16dd-LL	.	32d-	.	.
.	.	.	.	.	.	32g-JJJ	.	.
16r	.	16cc-	.	16ff	.	32A-LLL	.	V64
.	.	.	.	.	.	32a-	.	.
16AA-	.	16FJJ	.	16aa-JJ	.	32d-	.	.
.	.	.	.	.	.	32a-JJJ)	.	.
=124	=124	=124	=124	=124	=124	=124	=124	=124
16r	.	16G-LL	.	16ddd-LL	.	(32B-LLL	.	I
.	.	.	.	.	.	32b-	.	.
16GG-	.	16b-	.	16bb-	.	32d-	.	.
.	.	.	.	.	.	32b-JJJ	.	.
16r	.	16G-	.	16aa-	.	32B-LLL	.	.
.	.	.	.	.	.	32d-	.	.
16GG-'LL	.	16B-	.	[16gg-JJ)	.	32g-	.	.
.	.	.	.	.	.	32b-JJJ	.	.
16DD-'	.	16f-X	.	(8gg-]	.	32g-LLL	.	V43/IV
.	.	.	.	.	.	32b-	.	.
16EE-'JJ	.	16e-JJ	.	.	.	32dd-	.	.
.	.	.	.	.	.	32cc-JJJ)	.	.
=125	=125	=125	=125	=125	=125	=125	=125	=125
16FF-X'LL	.	16d-LL	.	8.gg-)	.	(32b-LLL	.	V2/IV
.	.	.	.	.	.	32g-	.	.
16FF-'JJ	.	16D-	.	.	.	32b-	.	.
.	.	.	.	.	.	32d-JJJ	.	.
16r	.	16E-	.	.	.	32cc-LLL	.	.
.	.	.	.	.	.	32g-	.	.
16EE-	.	16g-	.	(16G-LL	.	32cc-	.	.
.	.	.	.	.	.	32e-JJJ	.	.
16r	.	16D-	.	16B-	.	32dd-LLL	.	V43/IV
.	.	.	.	.	.	32b-	.	.
16DD-	.	16f-XJJ	.	16g-JJ)	.	32dd-	.	.
.	.	.	.	.	.	32f-XJJJ)	.	.
=126	=126	=126	=126	=126	=126	=126	=126	=126
!LO:TX:a:i:t=cresc.	!	!	!	!LO:TX:a:i:t=cresc.	!	!	!	!
16r	.	16C-LL	.	(16g-LL	.	(32ee-LLL	<	IV
.	.	.	.	.	.	32G-	.	.
16CC-	.	16e-	.	16e-	.	32c-	.	.
.	.	.	.	.	.	32G-JJJ	.	.
16r	.	16g-	.	16d-	.	32e-LLL	.	.
.	.	.	.	.	.	32g-	.	.
(16C-	.	16cc-JJ	.	16c-JJ	.	32cc-	.	.
.	.	.	.	.	.	32ee-JJJ	.	.
16BB-LL	sf sf	16d-LL	.	16d-LL	sf	32ff-XLLL	[ sf	V65/IV
.	.	.	.	.	.	32dd-	.	.
16C-JJ)	.	16G-JJ	.	[16e-JJ)	.	32ee-	.	IV
.	.	.	.	.	.	32cc-JJJ)	.	.
=127	=127	=127	=127	=127	=127	=127	=127	=127
16r	.	16GLL	.	16e-LL]	.	(32ee-LLL	.	IV+
.	.	.	.	.	.	32cc-	.	.
16GG	.	16e-	.	(16B-	.	32e-	.	V6/ii
.	.	.	.	.	.	32ee-JJJ	.	.
16r	.	16b-	.	16e-	.	32dd-LLL	.	.
.	.	.	.	.	.	32b-	.	.
(16GG	.	16ee-JJ	.	16b-JJ)	.	32e-	.	.
.	.	.	.	.	.	32dd-JJJ)	.	.
16EE-LL	sf sf	16c-LL	.	[8e-	sf	(32ee-LLL	sf	.
.	.	.	.	.	.	32cc-	.	.
16GGJJ)	.	16B-JJ	.	.	.	32dd-	.	.
.	.	.	.	.	.	32b-JJJ)	.	.
=128	=128	=128	=128	=128	=128	=128	=128	=128
16r	.	16A-LL	.	16e-LL]	.	(32dd-LLL	.	ii
.	.	.	.	.	.	32b-	.	.
16AA-	.	16c-	.	(16e-	.	32e-	.	.
.	.	.	.	.	.	32dd-JJJ	.	.
16r	.	16e-	.	16a-	.	32cc-LLL	.	.
.	.	.	.	.	.	32a-	.	.
16AA-LL	.	16a-JJ	.	16cc-JJ)	.	32e-	.	.
.	.	.	.	.	.	32cc-JJJ)	.	.
(16AA-	.	16C-LL	.	[8e-	.	(32ff-XLLL	.	.
.	.	.	.	.	.	32ee-)	.	.
16BB-JJ)	.	16D-JJ	.	.	.	(32ee-	.	.
.	.	.	.	.	.	32dd-JJJ)	.	.
=129	=129	=129	=129	=129	=129	=129	=129	=129
!LO:TX:a:i:t=cresc.	!	!	!	!LO:TX:a:i:t=cresc.	!	!LO:TX:a:i:t=cresc.	!	!
16r	.	16C-LL	.	16e-LL]	.	(32dd-LLL	.	ii6
.	.	.	.	.	.	32cc-)	.	.
!LO:TX:b:i:t=cresc.	!	!	!	!	!	!	!	!
16C-	.	16E-	.	(16a-JJ	.	(32cc-	.	.
.	.	.	.	.	.	32b-JJJ)	.	.
16r	.	16A-	.	16ee-LL	.	(32b-LLL	.	.
.	.	.	.	.	.	32a-)	.	.
16CC-	.	16c-JJ	.	[16aa-JJ)	.	(32a-	.	.
.	.	.	.	.	.	32ee-JJJ)	.	.
16r	.	16C-LL 16F	.	8aa-]	.	(32ee-LLL	.	V2
.	.	.	.	.	.	32dd-)	.	.
16CC-	.	16d-JJ	.	.	.	(32dd-	.	.
.	.	.	.	.	.	32fJJJ)	.	.
=130	=130	=130	=130	=130	=130	=130	=130	=130
16BBB-'LL	.	16d-LL	.	16bb-	.	(32a-LLL	.	I6
.	.	.	.	.	.	32g-)	.	.
16EE-'JJ	.	16E-JJ	.	(16G-LL	.	(32dd-	.	IV6
.	.	.	.	.	.	32cc-JJJ)	.	.
!	!	!	!LO:DY:a	!	!	!	!	!
16r	f	16D-LL 16G-	f	16B-	.	(32b-LLL	f	V(64)
.	.	.	.	.	.	32dd-)	>	.
16DD-	f >	16B-	>	16b-	>	(32gg-	.	.
.	.	.	.	.	.	32bb-JJJ)	.	.
16r	.	16D-JJ 16c-	.	16f	.	(32ggLLL	.	V7
.	.	.	.	.	.	32aa-)	.	.
16DD-	]]	16r	]	16dd-JJ)	]	(32ddd-	.	.
.	.	.	.	.	.	32ffJJJ)	]]	.
=131	=131	=131	=131	=131	=131	=131	=131	=131
!	!	!LO:TX:a:t=arco	!	!	!	!	!	!
16r	.	(32BB-LLL	p	(32B-LLL	p	(8gg-XL	p	I[I
.	.	32D-)	.	32d-)	.	.	.	.
16GG-	p	(32D-	.	(32d-	.	.	.	.
.	.	32G-JJJ)	.	32g-JJJ)	.	.	.	.
16r	.	(32C-LLL	.	(32c-LLL	.	8.ee-	.	IV
.	.	32E-)	.	32e-)	.	.	.	.
16GG-	.	(32E-	.	(32e-	.	.	.	.
.	.	32G-JJJ)	.	32g-JJJ)	.	.	.	.
16r	.	(32C-LLL	.	(32c-LLL	.	.	.	.
.	.	32E-)	.	32e-)	.	.	.	.
16GG-	.	(32E-	.	(32e-	.	16aa-Jk)	.	ii
.	.	32A-JJJ)	.	32a-JJJ)	.	.	.	.
=132	=132	=132	=132	=132	=132	=132	=132	=132
16r	.	(32C-LLL	.	(32c-LLL	.	(8gg-L	.	V7(4)
.	.	32D-)	.	32d-)	.	.	.	.
16GG-	.	(32D-	.	(32d-	.	.	.	.
.	.	32A-JJJ)	.	32a-JJJ)	.	.	.	.
16r	.	(32D-LLL	.	(32d-LLL	.	8ff	.	V7
.	.	32F)	.	32f)	.	.	.	.
16GG-	.	(32F	.	(32f	.	.	.	.
.	.	32A-JJJ)	.	32a-JJJ)	.	.	.	.
16r	.	(32FLLL	.	(32fLLL	.	16ee-L	.	.
.	.	32A-)	.	32a-)	.	.	.	.
16GG-	.	(32A-	.	(32a-	.	16dd-JJ)	.	.
.	.	32c-JJJ)	.	32cc-JJJ)	.	.	.	.
=133	=133	=133	=133	=133	=133	=133	=133	=133
16r	.	(8G-L	.	(8g-L	.	(32b-LLL	.	I
.	.	.	.	.	.	32dd-)	.	.
16GG-	.	.	.	.	.	(32dd-	.	.
.	.	.	.	.	.	32gg-JJJ)	.	.
16r	.	8.E-	.	8.e-	.	(32cc-LLL	.	ii64
.	.	.	.	.	.	32ee-)	.	.
16GG-	.	.	.	.	.	(32ee-	.	.
.	.	.	.	.	.	32aa-JJJ)	.	.
16r	.	.	.	.	.	(32ee-LLL	.	.
.	.	.	.	.	.	32aa-)	.	.
16GG-	.	16A-Jk)	.	16a-Jk)	.	(32aa-	.	.
.	.	.	.	.	.	32ccc-JJJ)	.	.
=134	=134	=134	=134	=134	=134	=134	=134	=134
16r	.	(8G-L	.	(8g-L	.	(32ee-LLL	.	.
.	.	.	.	.	.	32aa-)	.	.
16GG-	.	.	.	.	.	(32aa-	.	.
.	.	.	.	.	.	32ccc-JJJ)	.	.
16r	.	8F	.	8f	.	(32dd-LLL	.	V65
.	.	.	.	.	.	32aa-)	.	.
16GG-	.	.	.	.	.	(32aa-	.	.
.	.	.	.	.	.	32ccc-JJJ)	.	.
16r	.	16E-L	.	16e-L	.	(32dd-LLL	.	.
.	.	.	.	.	.	32aa-)	.	.
16GG-	.	16D-JJ)	.	16d-JJ)	.	(32aa-	.	.
.	.	.	.	.	.	32ccc-JJJ)	.	.
=135	=135	=135	=135	=135	=135	=135	=135	=135
!	!	!LO:TX:b:i:t=cresc.	!	!LO:TX:b:i:t=cresc.	!	!LO:TX:b:i:t=cresc.	!	!
16r	.	(8D-L	.	(8d-L	.	(32ccc-LLL	.	I]
.	.	.	.	.	.	32bb-)	.	.
!LO:TX:b:i:t=cresc.	!	!	!	!	!	!	!	!
16GG-	.	.	.	.	.	32aa-'	.	.
.	.	.	.	.	.	32gg-'JJJ	.	.
16r	.	8E-	.	8e-	.	32ff'LLL	.	IV
.	.	.	.	.	.	32ee-'	.	.
16CC-	.	.	.	.	.	32dd-'	.	.
.	.	.	.	.	.	32cc-'JJJ	.	.
16r	.	8FJ)	.	8fJ)	.	32b-'LLL	.	V
.	.	.	.	.	.	32a-'	.	.
16DD-	.	.	.	.	.	32g-'	.	.
.	.	.	.	.	.	32f'JJJ	.	.
=136	=136	=136	=136	=136	=136	=136	=136	=136
16r	.	4.F 4.A-	sf > ]]	4.f 4.a-	sf > ]]	(32e-LLL	sf	V7
.	.	.	.	.	.	32d-	.	.
16DD-	sf	.	.	.	.	32c	.	.
.	.	.	.	.	.	32d-JJJ	.	.
16r	>	.	.	.	.	32fLLL	>	.
.	.	.	.	.	.	32a-	.	.
16DD-	.	.	.	.	.	32cc-X	.	.
.	.	.	.	.	.	32dd-JJJ	.	.
16r	.	.	.	.	.	32ffLLL	.	.
.	.	.	.	.	.	32aa-	.	.
16DD-	]]	.	.	.	.	32ccc-)	.	.
.	.	.	.	.	.	32ff'JJJ	]]	.
=137	=137	=137	=137	=137	=137	=137	=137	=137
8DD-	p	8F 8A-	p	8f 8a-	p	8ccc-	p	.
8r	.	8r	.	8r	.	8r	.	.
8r	.	(32FLLL	.	(32fLLL	.	8r	.	.
.	.	32A-	.	32a-	.	.	.	.
.	.	32c-)	.	32cc-)	.	.	.	.
.	.	32F'JJJ	.	32f'JJJ	.	.	.	.
=138	=138	=138	=138	=138	=138	=138	=138	=138
8r	.	8c-	.	8cc-	.	4.r	.	.
8r	.	8r	.	8r	.	.	.	.
(32FFLLL	.	8r	.	8r	.	.	.	.
32AA-	.	.	.	.	.	.	.	.
32C-)	.	.	.	.	.	.	.	.
32FF'JJJ	.	.	.	.	.	.	.	.
=139	=139	=139	=139	=139	=139	=139	=139	=139
8GG-	.	8B--X	.	8d-	.	(8dd-L	.	i.i
[4G-	.	[4B--	.	[4d-	.	8b--X)	.	.
.	.	.	.	.	.	(16dd-'L	.	.
.	.	.	.	.	.	16b--'JJ)	.	.
=140	=140	=140	=140	=140	=140	=140	=140	=140
8G-]	.	8B--]	.	8d-]	.	(8a-L	.	i(9)
[4G-	.	[4B--X	.	[4d-	.	8g-J)	.	i
.	.	.	.	.	.	(16g-'LL	.	.
.	.	.	.	.	.	16b--X'JJ)	.	.
=141	=141	=141	=141	=141	=141	=141	=141	=141
!	!	!	!	!	!	!LO:TX:a:i:t=cresc.	!	!
8G-]	.	8B--]	.	8d-]	.	(8dd-L	.	.
!LO:TX:b:i:t=cresc.	!	!LO:TX:a:i:t=cresc.	!	!LO:TX:a:i:t=cresc.	!	!	!	!
[4G-	.	[4B--X	.	[4d-	.	8gg-)	.	.
.	.	.	.	.	.	(16bb--X'L	.	.
.	.	.	.	.	.	16gg-'JJ)	.	.
=142	=142	=142	=142	=142	=142	=142	=142	=142
.	.	.	.	.	.	16qqff/LL	.	.
.	.	.	.	.	.	16qqgg-/	.	.
!LO:TX:b:i:t=dim. p	!	!LO:TX:b:i:t=dim. p	!	!LO:TX:b:i:t=dim. p	!	!LO:TX:a:i:t=dim.	!	!
.	.	.	.	.	.	16qqaa-/JJ	.	.
8G-L]	.	(8B--L]	.	8d-L]	.	(8gg-L	.	.
8D-J	.	8A-J)	.	8d-J	.	8ffJ)	p	V
(8DD-	.	8r	.	8r	.	8r	.	.
=143	=143	=143	=143	=143	=143	=143	=143	=143
8GG-L	.	4.r	.	8r	.	4.r	.	ii
8.EE-	.	.	.	(8G-L	.	.	.	.
.	.	.	.	8c-J	.	.	.	.
16AA-Jk)	.	.	.	.	.	.	.	.
=144	=144	=144	=144	=144	=144	=144	=144	=144
(8GG-L	.	8r	.	8A-L	.	8r	.	V6(4)
16FFL	.	(8D-L	.	8d-	.	8r	.	V6
16EE-	.	.	.	.	.	.	.	.
16DD-	.	8A-J)	.	8FJ)	.	(8d-	.	V
16CC-JJ)	.	.	.	.	.	.	.	.
=145	=145	=145	=145	=145	=145	=145	=145	=145
!LO:TX:a:i:t=cresc.	!	!	!	!	!	!	!	!
!LO:TX:b:i:t=cresc.	!	!LO:TX:a:i:t=cresc.	!	!	!	!LO:TX:b:i:t=cresc.	!	!
(8BBB-L	.	(8D-	.	(8.G-L	.	8g-L)	.	I6
8.CC-	.	[4E-)	.	.	.	(8.e-	.	ii6
.	.	.	.	16GK	.	.	.	.
.	.	.	.	[8A-J)	.	.	.	.
[16CCJk)	.	.	.	.	.	32b-LL	.	V6/V
.	.	.	.	.	.	32a-JJJ	.	.
=146	=146	=146	=146	=146	=146	=146	=146	=146
16CCLL]	.	16E-LL]	.	8A-L]	.	8g-L	.	V7(4)
(16CC	.	(16E-	.	.	.	.	.	.
16DD-	.	16F)	.	(16A-L	.	8f	.	V7
16DD	.	(16F	.	16c-)	.	.	.	.
16EE-	.	16G-	.	16c-'	.	16e-L	.	.
16FFJJ)	.	16A-JJ)	.	16c-'JJ	.	16d-JJ)	.	.
=147	=147	=147	=147	=147	=147	=147	=147	=147
.	.	.	.	.	.	8qd-/	p	I\\
(16GG-LL	p	8G-	p	8B-	p	(8g-	.	.
16BB-JJ)	.	.	.	.	.	.	.	.
8r	.	(16C-LL	.	8r	.	4e-)	.	IV
.	.	16E-JJ)	.	.	.	.	.	.
8r	.	8r	.	(16G-XLL	.	.	.	.
.	.	.	.	16c-JJ)	.	.	.	.
=148	=148	=148	=148	=148	=148	=148	=148	=148
!LO:TX:b:i:t=cresc.	!	!	!	!	!	!LO:TX:a:i:t=cresc.	!	!
.	.	.	.	.	.	8qe-/	.	ii
(16AA-LL	.	8r	.	8r	.	(8cc-	.	.
16C-JJ)	.	.	.	.	.	.	.	.
!LO:TX:a:i:t=cresc.	!	!	!	!	!	!	!	!
8r	.	(16D-LL	.	8r	.	4f)	.	V
.	.	16FJJ)	.	.	.	.	.	.
!	!	!LO:TX:a:i:t=cresc.	!	!	!	!	!	!
8r	.	8r	.	(16A-LL	.	.	.	.
.	.	.	.	16d-JJ)	.	.	.	.
=149	=149	=149	=149	=149	=149	=149	=149	=149
.	.	.	.	.	.	8qf/	.	iii
(16BB-LL	.	8r	.	8r	.	(8dd-L	.	.
16D-JJ)	.	.	.	.	.	.	.	.
8r	.	(16E-LL	.	(8B-L	.	8g-	.	vi
.	.	16G-JJ)	.	.	.	.	.	.
(16AA-LL	.	(16c-LL	.	16e-L	.	16dd-L	.	ii
16C-JJ)	.	16e-JJ)	.	16a-JJ)	.	16cc-JJ)	.	ii6
=150	=150	=150	=150	=150	=150	=150	=150	=150
(16D-LL	p	8r	.	8r	.	8r	.	V(64)
16G-JJ)	.	.	.	.	.	.	.	.
.	.	.	.	.	.	32qqd-/LLL	p	.
.	.	.	.	.	.	32qqg-/JJJ	.	.
8r	.	(16B-LL	p	8r	.	8b-	.	.
.	.	16d-JJ)	.	.	.	.	.	.
8r	.	8r	p	(16g-LL	.	8r	.	.
.	.	.	.	16b-JJ)	.	.	.	.
=151	=151	=151	=151	=151	=151	=151	=151	=151
(16d-LL	.	8r	.	8r	.	8r	.	V7
16fJJ)	.	.	.	.	.	.	.	.
.	.	.	.	.	.	32qqdd-/LLL	.	.
.	.	.	.	.	.	32qqaa-/JJJ	.	.
8r	.	(16a-LL	.	8r	.	8ccc-	.	.
.	.	16dd-JJ)	.	.	.	.	.	.
8r	.	8r	.	(16ffLL	.	8r	.	.
.	.	.	.	16aa-JJ)	.	.	.	.
=152	=152	=152	=152	=152	=152	=152	=152	=152
4.r	.	8r	.	(16ffLL	.	(16ccc-LL	.	viio2
.	.	.	.	16aa-JJ)	.	16ccc-JJ)	.	.
.	.	4ee--X	.	8r	.	8r	.	.
.	.	.	.	8r	.	8r	.	.
=153	=153	=153	=153	=153	=153	=153	=153	=153
4.r	.	8r	.	(16ffLL	.	(16ccc-LL	.	.
.	.	.	.	16aa-JJ)	.	16ccc-JJ)	.	.
.	.	[4ee--X	.	8r	.	8r	.	.
.	.	.	.	8r	.	8r	.	.
=154	=154	=154	=154	=154	=154	=154	=154	=154
8r	.	(4ee--]	.	(8ff	.	4.ccc-	.	V
8r	.	.	.	4aa-)	.	.	.	.
*clefC4	*	*	*	*	*	*	*	*
(8f	.	8dd-)	.	.	.	.	.	.
=155	=155	=155	=155	=155	=155	=155	=155	=155
4g-	.	4dd-	.	4gg-	.	4bb-	.	I64
16a-LL	.	8r	.	8r	.	8r	.	.
16g-JJ	.	.	.	.	.	.	.	.
=156	=156	=156	=156	=156	=156	=156	=156	=156
8f)	.	4.a-	.	(4e--X	.	4.cc-	.	V65
8r	.	.	.	.	.	.	.	.
*clefF4	*	*	*	*	*	*	*	*
(8F	.	.	.	8d-)	.	.	.	.
=157	=157	=157	=157	=157	=157	=157	=157	=157
4G-	.	4g-	.	4d-	.	4b-	.	I
16A-LL	.	8r	.	8r	.	8r	.	.
16G-JJ	.	.	.	.	.	.	.	.
=158	=158	=158	=158	=158	=158	=158	=158	=158
8F)	.	(4E--X	.	4.A-	.	4.c-	.	V65
(16FFLL	.	.	.	.	.	.	.	.
16DD-	.	.	.	.	.	.	.	.
16EE-	.	8D-)	.	.	.	.	.	.
16FFJJ)	.	.	.	.	.	.	.	.
=159	=159	=159	=159	=159	=159	=159	=159	=159
(4GG-	.	4.D-	> < [[	4.G-	> < [[	4.B-	> < [[	I
16AA-LL	.	.	.	.	.	.	.	.
16GG-JJ)	.	.	.	.	.	.	.	.
=160	=160	=160	=160	=160	=160	=160	=160	=160
8GG-L	.	8D-L	[	8G-L	[	8B-L	[	.
8GG-J	.	8D-J	.	8G-J	.	8B-J	.	.
8r	.	8r	.	8r	.	8r	.	.
=161	=161	=161	=161	=161	=161	=161	=161	=161
8GG-L	.	8D-L	.	8G-L	.	8B--XL	.	i
8GG-J	.	8D-J	.	8G-J	.	8B--J	.	.
8r	.	8r	.	8r	.	8r	.	.
=162	=162	=162	=162	=162	=162	=162	=162	=162
!LO:TX:a:i:t=cresc.	!	!	!	!	!	!	!	!
!LO:TX:b:i:t=cresc.	!	!LO:TX:a:i:t=cresc.	!	!	!	!LO:TX:b:i:t=cresc.	!	!
4.EE-	.	4.C	.	4.G-	.	4.A-	.	V43/V
=163	=163	=163	=163	=163	=163	=163	=163	=163
!	!	!	!LO:DY:a	!	!	!	!	!
4.DD-	sf > ]]	4.C-X	sf sf > ]]	4.F	>]	4.d-	sf > ]]	V7
=164	=164	=164	=164	=164	=164	=164	=164	=164
8GG-	p p	8BB-	p	8G-	.	8d-	p	I
!LO:TX:b:i:t=espressivo morendo	!	!	!	!	!	!	!	!
!LO:TX:a:i:t=espressivo morendo	!	!	!	!	!	!LO:TX:b:i:t=espressivo morendo	!	!
8r	.	8r	.	8r	.	8r	.	.
!	!	!LO:TX:a:i:t=espressivo morendo	!	!	!	!	!	!
8DD-	.	8C-	.	8F	.	8d-	.	V7
=165	=165	=165	=165	=165	=165	=165	=165	=165
8GG-	.	8BB-	.	8G-	.	8d-	.	I
8r	.	8r	.	8r	.	8r	.	.
8DD-	.	8C-	.	8F	.	8d-	.	V7
=166	=166	=166	=166	=166	=166	=166	=166	=166
8r	.	8r	.	8r	.	8r	.	.
8GG-	.	8BB-	.	8G-	.	8d-	.	I
8r	.	8r	.	8r	.	8r	.	.
=167	=167	=167	=167	=167	=167	=167	=167	=167
8r	.	8r	.	8r	.	8r	.	.
8GG-	.	8D-	.	8B-	.	8g-	.	.
8r	.	8r	.	8r	.	8r	.	.
=168	=168	=168	=168	=168	=168	=168	=168	=168
8r	.	8r	.	8r	.	8r	.	.
8GG-L	.	8D-L	.	8B-L	.	8g-L	.	.
8GG-J	.	8D-J	.	8B-J	.	8g-J	.	.
=169	=169	=169	=169	=169	=169	=169	=169	=169
8GG-	.	8D-	.	8B-	.	8g-	.	I\\
8r	.	8r	.	8r	.	8r	.	.
8r	.	8r	.	8r	.	8r	.	.
=:|!	=:|!	=:|!	=:|!	=:|!	=:|!	=:|!	=:|!	=:|!
*-	*-	*-	*-	*-	*-	*-	*-	*-
!!!system-decoration: [(s1,s2,s3,s4)]
